assets/clients/merkle.svg

<svg width="152" height="20" viewBox="0 0 152 20" fill="none" xmlns="http://www.w3.org/2000/svg">
    <path d="M20.8447 19.4732H16.7079V8.12877L10.5574 17.0333L4.29921 8.12877V19.4732H0.164062V0.390625H3.48817L10.5183 10.3561L17.5304 0.390625H20.8447V19.4732Z" fill="#BFBEBE"/>
    <path d="M45.8558 19.4514H26.9082V0.389648H45.0545V4.29148H31.045V7.42955H40.2259V11.2866H31.045V15.5927H45.8558V19.4514Z" fill="#BFBEBE"/>
    <path d="M71.1474 19.472H66.5064L61.366 11.6891H54.6036V19.4704H50.4668V0.432617H63.4809C65.3869 0.432617 66.9247 0.891718 68.0942 1.80992C69.3649 2.8144 69.9997 4.22792 69.9986 6.05048C70.0174 7.2508 69.6333 8.42399 68.9052 9.38988C68.1674 10.3638 67.1422 11.0927 65.9679 11.4782L71.1474 19.472ZM65.8259 6.02012C65.8352 5.78555 65.7938 5.55171 65.7044 5.33391C65.6149 5.11611 65.4795 4.91926 65.307 4.75626C64.9132 4.47825 64.3045 4.33924 63.4809 4.33924H54.6036V7.83842H63.4826C64.3344 7.83842 64.9409 7.67864 65.3021 7.35908C65.6326 6.99201 65.8168 6.52061 65.821 6.03131" fill="#BFBEBE"/>
    <path d="M95.4458 19.472H90.5927L83.3929 9.96669L80.4359 12.4401V19.472H76.3008V0.432617H80.4359V7.55561L89.0554 0.432617H94.829L86.3514 7.46613L95.4458 19.472Z" fill="#BFBEBE"/>
    <path d="M117.551 19.4514H100.053V0.389648H104.191V15.5927H117.551V19.4514Z" fill="#BFBEBE"/>
    <path d="M140.244 19.4514H121.297V0.389648H139.443V4.29148H125.434V7.42955H134.615V11.2866H125.434V15.5927H140.244V19.4514Z" fill="#BFBEBE"/>
    <path d="M142.342 19.4722L151.234 10.916V19.4722H142.342Z" fill="#BFBEBE"/>
</svg>

<svg width="152" height="20" fill="none" xmlns="http://www.w3.org/2000/svg"><path d="M20.845 19.473h-4.137V8.13l-6.15 8.904L4.298 8.13v11.344H.164V.391h3.324l7.03 9.965L17.53.391h3.315v19.082ZM45.856 19.451H26.908V.39h18.146V4.29H31.045V7.43h9.18v3.857h-9.18v4.306h14.81v3.858ZM71.147 19.472h-4.64l-5.141-7.783h-6.762v7.781h-4.137V.433H63.48c1.906 0 3.444.459 4.613 1.377C69.364 2.814 70 4.228 70 6.05a5.405 5.405 0 0 1-1.094 3.34 6.048 6.048 0 0 1-2.937 2.088l5.18 7.994ZM65.826 6.02a1.636 1.636 0 0 0-.519-1.264c-.394-.278-1.002-.417-1.826-.417h-8.877v3.5h8.879c.851 0 1.458-.16 1.82-.48a2.01 2.01 0 0 0 .518-1.328M95.446 19.472h-4.853l-7.2-9.505-2.957 2.473v7.032H76.3V.432h4.135v7.124l8.62-7.123h5.773l-8.478 7.033 9.095 12.006ZM117.551 19.451h-17.498V.39h4.138v15.203h13.36v3.858ZM140.244 19.451h-18.947V.39h18.146V4.29h-14.009V7.43h9.181v3.857h-9.181v4.306h14.81v3.858ZM142.342 19.472l8.892-8.556v8.556h-8.892Z" fill="#BFBEBE"/></svg>
